!! 00000] TT[WS
!!!OTL: Boli liangmian guang
!!!ARE: Asia, China, Shanxi Heshun
!! Ethnic Group: Han
!! WI, 322
!!!SCT: J0390
!!!YEM: Copyright 1995, estate of Helmut Schaffrath.
**kern
*ICvox
*Ivox
*M2/4
*k[f#]
*G:
{8.dd
16dd
8dd
8ee
=1
8gg
8ee
4dd
=2
8.dd
16dd
8dd
8ee
=3
8gg
8ee
4dd}
=4
{8gg
8ee
4dd
=5
8gg
8ee
4dd
=6
8e
8g
8b
8a
=7
2g}
=8
{8a
8g
[4a
=9
4a]
8a
8b
=10
8dd
8g
8f#
8e
=11
2d}
=12
{8g
8f#
8a
8e
=13
2d}
==
!!!AGN: Xiaodiao. Xinminge, Xuanchuan
!! Neue Text. Politische Liede
!!!ONB: ESAC (Essen Associative Code) Database: CHINA
!!!AMT: simple duple
!!!AIN: vox
!!!EED: Helmut Schaffrath
!!!EEV: 1.0
*-
!!!ONB: Tied note syntax fixed by Craig Sapp, 2004/05/03/
